assets/components_previews/forms/light/button.svg

<svg xmlns="http://www.w3.org/2000/svg" width="320" height="232" fill="none" viewBox="0 0 320 232"><g filter="url(#a)"><rect width="78" height="40" x="121" y="96" fill="#fff" rx="12"/><path fill="#AA99EC" d="M174.385 121v-7.14h2.058v1.302c.49-.882 1.358-1.442 2.562-1.442 1.582 0 2.45.952 2.45 2.45V121h-2.1v-4.424c0-.784-.406-1.176-1.176-1.176-.994 0-1.694.714-1.694 1.764V121zm-4.886.14c-2.352 0-3.948-1.512-3.948-3.738 0-2.212 1.582-3.682 3.948-3.682 2.38 0 3.948 1.47 3.948 3.682 0 2.226-1.596 3.738-3.948 3.738m0-1.652c.98 0 1.764-.784 1.764-2.1 0-1.288-.77-2.016-1.764-2.016s-1.764.742-1.764 2.016c0 1.316.784 2.1 1.764 2.1m-5.472 1.666c-1.834 0-2.702-.868-2.702-2.688v-3.01h-1.33v-1.596h1.33v-1.596l2.1-.784v2.38h1.848v1.596h-1.848v3.08c0 .644.35.952 1.092.952.28 0 .518-.056.756-.14v1.596c-.252.14-.7.21-1.246.21m-5.745 0c-1.834 0-2.702-.868-2.702-2.688v-3.01h-1.33v-1.596h1.33v-1.596l2.1-.784v2.38h1.848v1.596h-1.848v3.08c0 .644.35.952 1.092.952.28 0 .518-.056.756-.14v1.596c-.252.14-.7.21-1.246.21m-9.324-.014c-1.526 0-2.394-1.092-2.394-2.45v-4.83h2.1v4.424c0 .784.406 1.176 1.12 1.176.938 0 1.638-.714 1.638-1.764v-3.836h2.1V121h-2.058v-1.302c-.49.882-1.344 1.442-2.506 1.442M137.7 121v-10.08h4.69c1.792 0 2.996.98 2.996 2.548 0 1.12-.658 1.89-1.596 2.212 1.092.336 1.876 1.274 1.876 2.576 0 1.666-1.218 2.744-3.094 2.744zm4.228-8.54h-2.072v2.492h2.03c.882 0 1.344-.42 1.344-1.246s-.448-1.246-1.302-1.246m.07 4.032h-2.142v2.968h2.212c.924 0 1.414-.546 1.414-1.456 0-.938-.532-1.512-1.484-1.512"/></g><defs><filter id="a" width="118" height="80" x="101" y="88" color-interpolation-filters="sRGB" filterUnits="userSpaceOnUse"><feFlood flood-opacity="0" result="BackgroundImageFix"/><feColorMatrix in="SourceAlpha" result="hardAlpha" values="0 0 0 0 0 0 0 0 0 0 0 0 0 0 0 0 0 0 127 0"/><feOffset dy="12"/><feGaussianBlur stdDeviation="10"/><feComposite in2="hardAlpha" operator="out"/><feColorMatrix values="0 0 0 0 0 0 0 0 0 0 0 0 0 0 0 0 0 0 0.03 0"/><feBlend in2="BackgroundImageFix" result="effect1_dropShadow_10159_2493"/><feColorMatrix in="SourceAlpha" result="hardAlpha" values="0 0 0 0 0 0 0 0 0 0 0 0 0 0 0 0 0 0 127 0"/><feOffset dy="2"/><feGaussianBlur stdDeviation="3"/><feComposite in2="hardAlpha" operator="out"/><feColorMatrix values="0 0 0 0 0 0 0 0 0 0 0 0 0 0 0 0 0 0 0.05 0"/><feBlend in2="effect1_dropShadow_10159_2493" result="effect2_dropShadow_10159_2493"/><feBlend in="SourceGraphic" in2="effect2_dropShadow_10159_2493" result="shape"/></filter></defs></svg>

<svg width="320" height="232" viewBox="0 0 320 232" fill="none" xmlns="http://www.w3.org/2000/svg">
<g filter="url(#filter0_dd_10159_2493)">
<rect x="121" y="96" width="78" height="40" rx="12" fill="white"/>
<path d="M174.385 121V113.86H176.443V115.162C176.933 114.28 177.801 113.72 179.005 113.72C180.587 113.72 181.455 114.672 181.455 116.17V121H179.355V116.576C179.355 115.792 178.949 115.4 178.179 115.4C177.185 115.4 176.485 116.114 176.485 117.164V121H174.385Z" fill="#AA99EC"/>
<path d="M169.499 121.14C167.147 121.14 165.551 119.628 165.551 117.402C165.551 115.19 167.133 113.72 169.499 113.72C171.879 113.72 173.447 115.19 173.447 117.402C173.447 119.628 171.851 121.14 169.499 121.14ZM169.499 119.488C170.479 119.488 171.263 118.704 171.263 117.388C171.263 116.1 170.493 115.372 169.499 115.372C168.505 115.372 167.735 116.114 167.735 117.388C167.735 118.704 168.519 119.488 169.499 119.488Z" fill="#AA99EC"/>
<path d="M164.027 121.154C162.193 121.154 161.325 120.286 161.325 118.466V115.456H159.995V113.86H161.325V112.264L163.425 111.48V113.86H165.273V115.456H163.425V118.536C163.425 119.18 163.775 119.488 164.517 119.488C164.797 119.488 165.035 119.432 165.273 119.348V120.944C165.021 121.084 164.573 121.154 164.027 121.154Z" fill="#AA99EC"/>
<path d="M158.282 121.154C156.448 121.154 155.58 120.286 155.58 118.466V115.456H154.25V113.86H155.58V112.264L157.68 111.48V113.86H159.528V115.456H157.68V118.536C157.68 119.18 158.03 119.488 158.772 119.488C159.052 119.488 159.29 119.432 159.528 119.348V120.944C159.276 121.084 158.828 121.154 158.282 121.154Z" fill="#AA99EC"/>
<path d="M148.958 121.14C147.432 121.14 146.564 120.048 146.564 118.69V113.86H148.664V118.284C148.664 119.068 149.07 119.46 149.784 119.46C150.722 119.46 151.422 118.746 151.422 117.696V113.86H153.522V121H151.464V119.698C150.974 120.58 150.12 121.14 148.958 121.14Z" fill="#AA99EC"/>
<path d="M137.7 121V110.92H142.39C144.182 110.92 145.386 111.9 145.386 113.468C145.386 114.588 144.728 115.358 143.79 115.68C144.882 116.016 145.666 116.954 145.666 118.256C145.666 119.922 144.448 121 142.572 121H137.7ZM141.928 112.46H139.856V114.952H141.886C142.768 114.952 143.23 114.532 143.23 113.706C143.23 112.88 142.782 112.46 141.928 112.46ZM141.998 116.492H139.856V119.46H142.068C142.992 119.46 143.482 118.914 143.482 118.004C143.482 117.066 142.95 116.492 141.998 116.492Z" fill="#AA99EC"/>
</g>
<defs>
<filter id="filter0_dd_10159_2493" x="101" y="88" width="118" height="80" filterUnits="userSpaceOnUse" color-interpolation-filters="sRGB">
<feFlood flood-opacity="0" result="BackgroundImageFix"/>
<feColorMatrix in="SourceAlpha" type="matrix" values="0 0 0 0 0 0 0 0 0 0 0 0 0 0 0 0 0 0 127 0" result="hardAlpha"/>
<feOffset dy="12"/>
<feGaussianBlur stdDeviation="10"/>
<feComposite in2="hardAlpha" operator="out"/>
<feColorMatrix type="matrix" values="0 0 0 0 0 0 0 0 0 0 0 0 0 0 0 0 0 0 0.03 0"/>
<feBlend mode="normal" in2="BackgroundImageFix" result="effect1_dropShadow_10159_2493"/>
<feColorMatrix in="SourceAlpha" type="matrix" values="0 0 0 0 0 0 0 0 0 0 0 0 0 0 0 0 0 0 127 0" result="hardAlpha"/>
<feOffset dy="2"/>
<feGaussianBlur stdDeviation="3"/>
<feComposite in2="hardAlpha" operator="out"/>
<feColorMatrix type="matrix" values="0 0 0 0 0 0 0 0 0 0 0 0 0 0 0 0 0 0 0.05 0"/>
<feBlend mode="normal" in2="effect1_dropShadow_10159_2493" result="effect2_dropShadow_10159_2493"/>
<feBlend mode="normal" in="SourceGraphic" in2="effect2_dropShadow_10159_2493" result="shape"/>
</filter>
</defs>
</svg>
